X:580
T:The Grand Duke of Tuscany's March.
C:John Malchair's Third Collection of Tunes
F:https://www.vwml.org/record/Malchair/3619/p58
F:www.vwml.org/topics/historic-dance-and-tune-books/Malchair
Z:Eric Conrad Jan 2020
M:C
L:1/8
R:march
K:D
%%text as played by a Savoyard on a barrill Organ in the Streets at Oxford. November 30 - 1734.
A,2 | D2D>D D2F2 | E2D2 z2A,2 | F2F>F F2A2 | {A}G2F2 z2A2 |
B2G2 z2G2 | A2F2 z2DE | F2A2 G2F2 | {G}F2E2 z2A/G/F/E/ |
D2D2- DABA | A2G2 z2G/F/E/D/ | C2C2 EGAG | G2F2 z2A,2 |
D2D2 (3DEF (3EFG | F2F2 (3FGA (3GAB | B2A2 z2A2 | B2G2 z2G2 |
A2F2 G4 | A2d2 HB2 G/F/E/D/ | A,4 E4 | D6 |]

